X: 1968
T: Arthur Darley's
R: jig
M: 6/8
K: Amixolydian
|:"D"ABA "A"AGF|EDC "D"D2A|d2e fgf|edc "A"dAA|
"D"d2e fgf|edc "A"dAA|"G"BAG "D"FDD|[M:9/8] EDC DA,B, CDE|
[M:6/8]"D"Ddd "A"Aee|"D"Aff "G"Agg|"D"fed edc|1 ded dcB:|2 d2d d=c_B||
K:Dmin
|:"Dm" A2f fgf|A2f fgf|Aff Agg|Aaa Abb|
A2f fgf|A2f fgf|fed ed^c|1 ded d2B:|2 ded d2e||
K: Dmaj
|:"D"fgf edc|"D"dAA "G"BAG|"D"FDD EDC|DA,B, CDE|
"D"Ddd "A"Aee|"D"Aff "G"Agg|"D"fed edc|1 ded d2e:|2 ded d3||

